src/assets/newspaper.svg

<?xml version="1.0" encoding="UTF-8"?><!DOCTYPE svg PUBLIC "-//W3C//DTD SVG 1.1//EN" "http://www.w3.org/Graphics/SVG/1.1/DTD/svg11.dtd"><svg xmlns="http://www.w3.org/2000/svg" xmlns:xlink="http://www.w3.org/1999/xlink" version="1.1" width="24" height="24" viewBox="0 0 24 24"><path d="M20,11H4V8H20M20,15H13V13H20M20,19H13V17H20M11,19H4V13H11M20.33,4.67L18.67,3L17,4.67L15.33,3L13.67,4.67L12,3L10.33,4.67L8.67,3L7,4.67L5.33,3L3.67,4.67L2,3V19A2,2 0 0,0 4,21H20A2,2 0 0,0 22,19V3L20.33,4.67Z" /></svg>

<svg xmlns="http://www.w3.org/2000/svg" viewBox="0 0 24 24"><path d="M20 11H4V8h16m0 7h-7v-2h7m0 6h-7v-2h7m-9 2H4v-6h7m9.3-8.3L18.7 3 17 4.7 15.3 3l-1.6 1.7L12 3l-1.7 1.7L8.7 3 7 4.7 5.3 3 3.7 4.7 2 3v16a2 2 0 0 0 2 2h16a2 2 0 0 0 2-2V3l-1.7 1.7Z"/></svg>
